X: 599
T: Poyntins whim
M:4/4
L:1/8
S: 8: MCJLSH3 http://www.cpartington.plus.com/links/Walsh.abc
Z: Pete Stewart 2004
B: Walsh "Third Book of the most Celebrated jiggs, Lancashire hornpipes, ..."
K:F
cB | A2F4GA | Bcde fgab | e2g4fg | afge fdec | dBcA fdcB | A2F4 ||
fg | agaf bagf | efge fagf | e2g4fg | afge fdec | dBcA fdcB | A2F4 ||

%%sep 1 1 500
%%sep 1 1 500
